svgs/sharp-regular/right-long-to-line.svg

<svg xmlns="http://www.w3.org/2000/svg" viewBox="0 0 640 512"><!--! Font Awesome Pro 6.4.0 by @fontawesome - https://fontawesome.com License - https://fontawesome.com/license (Commercial License) Copyright 2023 Fonticons, Inc. --><path d="M640 88V64H592V88 424v24h48V424 88zM304 232l48 0V184 163.9L444.1 256 352 348.1V328 280l-48 0L48 280V232l256 0zm208 24l-33.9-33.9L352 96H304v40 8 40l-48 0L48 184H0v48 48 48H48 256h48v40 8 40h48L478.1 289.9 512 256z"/></svg>

<svg xmlns="http://www.w3.org/2000/svg" viewBox="0 0 640 512"><!--! Font Awesome Pro 6.6.0 by @fontawesome - https://fontawesome.com License - https://fontawesome.com/license (Commercial License) Copyright 2024 Fonticons, Inc. --><path d="M640 88l0-24-48 0 0 24 0 336 0 24 48 0 0-24 0-336zM304 232l48 0 0-48 0-20.1L444.1 256 352 348.1l0-20.1 0-48-48 0L48 280l0-48 256 0zm208 24l-33.9-33.9L352 96l-48 0 0 40 0 8 0 40-48 0L48 184 0 184l0 48 0 48 0 48 48 0 208 0 48 0 0 40 0 8 0 40 48 0L478.1 289.9 512 256z"/></svg>
